symbols/web/room_preferences/materialsymbolsoutlined/room_preferences_wght500grad200fill1_40px.svg

<svg xmlns="http://www.w3.org/2000/svg" height="40" width="40"><path d="m28.458 37.875-.375-2.542q-.625-.166-1.312-.541-.688-.375-1.063-.792l-2.333.833-1.875-3.041 1.958-1.667q-.125-.625-.125-1.292 0-.666.125-1.291L21.5 25.875l1.875-3.083 2.333.833q.375-.375 1.063-.729.687-.354 1.312-.563l.375-2.583h3.584l.5 2.583q.583.209 1.27.563.688.354 1.105.729l2.333-.875 1.917 3.167-2.042 1.666q.125.625.125 1.271 0 .646-.125 1.271l2.042 1.667-1.917 3.083L34.917 34q-.417.417-1.105.792-.687.375-1.27.541l-.5 2.542Zm1.792-5.25q1.625 0 2.75-1.104t1.125-2.729q0-1.625-1.125-2.73-1.125-1.104-2.75-1.104-1.667 0-2.75 1.084-1.083 1.083-1.083 2.75 0 1.666 1.083 2.75 1.083 1.083 2.75 1.083ZM18.125 21.917q.792 0 1.354-.563.563-.562.563-1.354t-.542-1.354q-.542-.563-1.375-.563-.792 0-1.354.563-.563.562-.563 1.354t.563 1.354q.562.563 1.354.563Zm-14.708 14v-3.709H7.25V4.042H25.5v1.791h7.292v11.542h-3.709V9.542H25.5v8.833q-1.125.458-2.083 1.167-.959.708-1.625 1.583-1.292 1.375-2.125 3.354-.834 1.979-.834 4.313 0 .958.167 1.812.167.854.458 1.604.25 1.125.75 2.063.5.937 1.084 1.646Z"/></svg>

<svg xmlns="http://www.w3.org/2000/svg" height="40" width="40"><path d="M28.458 37.875 28.083 35.333Q27.458 35.167 26.771 34.792Q26.083 34.417 25.708 34L23.375 34.833L21.5 31.792L23.458 30.125Q23.333 29.5 23.333 28.833Q23.333 28.167 23.458 27.542L21.5 25.875L23.375 22.792L25.708 23.625Q26.083 23.25 26.771 22.896Q27.458 22.542 28.083 22.333L28.458 19.75H32.042L32.542 22.333Q33.125 22.542 33.812 22.896Q34.5 23.25 34.917 23.625L37.25 22.75L39.167 25.917L37.125 27.583Q37.25 28.208 37.25 28.854Q37.25 29.5 37.125 30.125L39.167 31.792L37.25 34.875L34.917 34Q34.5 34.417 33.812 34.792Q33.125 35.167 32.542 35.333L32.042 37.875ZM30.25 32.625Q31.875 32.625 33 31.521Q34.125 30.417 34.125 28.792Q34.125 27.167 33 26.062Q31.875 24.958 30.25 24.958Q28.583 24.958 27.5 26.042Q26.417 27.125 26.417 28.792Q26.417 30.458 27.5 31.542Q28.583 32.625 30.25 32.625ZM18.125 21.917Q18.917 21.917 19.479 21.354Q20.042 20.792 20.042 20Q20.042 19.208 19.5 18.646Q18.958 18.083 18.125 18.083Q17.333 18.083 16.771 18.646Q16.208 19.208 16.208 20Q16.208 20.792 16.771 21.354Q17.333 21.917 18.125 21.917ZM3.417 35.917V32.208H7.25V4.042H25.5V5.833H32.792V17.375H29.083V9.542H25.5V18.375Q24.375 18.833 23.417 19.542Q22.458 20.25 21.792 21.125Q20.5 22.5 19.667 24.479Q18.833 26.458 18.833 28.792Q18.833 29.75 19 30.604Q19.167 31.458 19.458 32.208Q19.708 33.333 20.208 34.271Q20.708 35.208 21.292 35.917Z"/></svg>
